X:1
T:[ID 5-30]
T:[ID 5-30]
T:Bezeichnung standardisiert: Clapper Sesken oder Wasch Tantz; Clapper oder Wasch 6ken 7. Clapper 6ken oder Wasch Tantz] In dieser Quelle auch als: Clapper Sesken oder Wasch Tantz
T:Urheber unbekannt Datum in der hier transkribierten schriftlichen Quelle: 1775
C:Urheber unbekannt
C:Datum in der hier transkribierten schriftlichen Quelle: 1775
L:1/8
M:2/4
K:G
V:1 treble 
V:1
 Gedc | B2 G2 | AcBA | DC/D/ B,2 | B,edc | B2 A2 | GB BA/G/ | F2 F2 :: BG B,F/G/ | A3 F | %10
 BG B,F/G/ | A3 F | BG B,G/A/ | BG B,2 | Ac A/B/c/A/ | B2 B2 :: G/A/B BB | F/G/A AA | G/A/B BB | %19
 F/G/A AA | B,G Bc/d/ | ed/c/ BA | GF/E/ D/C/B,/A,/ | B,2 B,2 :| %24

